svg/u1f469_200d_1f393.svg

<svg viewBox="0 0 128 128" xmlns="http://www.w3.org/2000/svg">
  <g id="hairGroup_1_">
    <path id="hair_10_" d="M64.57,4.87c-41.01,0-40.68,35.92-40.68,36.52c0,24.56,1.88,59.25,11.71,72.9 c3.9,5.41,11.43,5.71,11.43,5.71L64,119.98L80.97,120c0,0,7.54-0.3,11.43-5.71c9.83-13.65,11.71-48.34,11.71-72.9 C104.1,40.79,105.58,4.87,64.57,4.87z" fill="#543930"/>
    <radialGradient id="hairHighlights_2_" cx="64.0002" cy="68.5103" gradientTransform="matrix(1 0 0 -1.1901 0 141.0216)" gradientUnits="userSpaceOnUse" r="46.9632">
      <stop offset="0.7936" stop-color="#6D4C41" stop-opacity="0"/>
      <stop offset="1" stop-color="#6D4C41"/>
    </radialGradient>
    <path id="hairHighlights_1_" d="M64.57,4.87c-41.01,0-40.68,35.92-40.68,36.52 c0,24.56,1.88,59.25,11.71,72.9c3.9,5.41,11.43,5.71,11.43,5.71L64,119.98L80.97,120c0,0,7.54-0.3,11.43-5.71 c9.83-13.65,11.71-48.34,11.71-72.9C104.1,40.79,105.58,4.87,64.57,4.87z" fill="url(#hairHighlights_2_)"/>
  </g>
  <path id="neck" d="M73.78,89.18H54.1v19.48c0,4.89,4.01,8.85,8.95,8.85h1.79c4.94,0,8.95-3.97,8.95-8.85 V89.18H73.78z" fill="#E59600"/>
  <path id="head" d="M63.95,16.23c-17.2,0-33.13,12.79-33.13,39.91c0,21.79,13.49,34.67,25.23,38.83 c2.8,0.99,5.5,1.49,7.9,1.49c2.38,0,5.07-0.49,7.85-1.47c11.76-4.14,25.28-17.03,25.28-38.84C97.08,29.02,81.15,16.23,63.95,16.23z" fill="#FFCA28"/>
  <path id="nose" d="M67.76,68.24c-0.1-0.04-0.21-0.07-0.32-0.08h-6.99c-0.11,0.01-0.21,0.04-0.32,0.08 c-0.63,0.26-0.98,0.91-0.68,1.61s1.69,2.66,4.49,2.66c2.8,0,4.19-1.96,4.49-2.66C68.74,69.16,68.4,68.5,67.76,68.24z" fill="#E59600"/>
  <g id="eyes">
    <ellipse cx="47.7" cy="59.06" fill="#404040" rx="4.87" ry="5.04"/>
    <ellipse cx="80.2" cy="59.06" fill="#404040" rx="4.87" ry="5.04"/>
  </g>
  <g id="eyebrows">
    <path d="M54.93,50.01C54,48.78,51.86,47,47.7,47s-6.31,1.79-7.23,3.01c-0.41,0.54-0.31,1.17-0.02,1.55 c0.26,0.35,1.04,0.68,1.9,0.39s2.54-1.16,5.35-1.18c2.81,0.02,4.49,0.89,5.35,1.18s1.64-0.03,1.9-0.39 C55.24,51.18,55.34,50.55,54.93,50.01z" fill="#6D4C41"/>
    <path d="M87.43,50.01C86.5,48.78,84.36,47,80.2,47s-6.31,1.79-7.23,3.01c-0.41,0.54-0.31,1.17-0.02,1.55 c0.26,0.35,1.04,0.68,1.9,0.39s2.54-1.16,5.35-1.18c2.81,0.02,4.49,0.89,5.35,1.18s1.64-0.03,1.9-0.39 C87.74,51.18,87.84,50.55,87.43,50.01z" fill="#6D4C41"/>
  </g>
  <path id="mouth" d="M72.27,76.33c-3.15,1.87-13.46,1.87-16.61,0c-1.81-1.07-3.65,0.57-2.9,2.21 c0.74,1.61,6.37,5.36,11.23,5.36s10.42-3.75,11.16-5.36C75.9,76.9,74.07,75.25,72.27,76.33z" fill="#795548"/>
  <path d="M114.45,120.99c0-14.61-21.75-21.54-40.72-23.1l-8.6,11.03c-0.28,0.36-0.72,0.58-1.18,0.58 c-0.46,0-0.9-0.21-1.18-0.58l-8.61-11.05c-10.55,0.81-40.71,4.75-40.71,23.12V124h101L114.45,120.99L114.45,120.99z" fill="#212121"/>
  <radialGradient id="SVGID_1_" cx="63.9495" cy="5.3966" gradientTransform="matrix(1 0 0 -0.5247 0 125.4353)" gradientUnits="userSpaceOnUse" r="54.167">
    <stop offset="0.5981" stop-color="#212121"/>
    <stop offset="1" stop-color="#616161"/>
  </radialGradient>
  <path d="M114.45,120.99c0-14.61-21.75-21.54-40.72-23.1l-8.6,11.03c-0.28,0.36-0.72,0.58-1.18,0.58 c-0.46,0-0.9-0.21-1.18-0.58l-8.61-11.05c-10.55,0.81-40.71,4.75-40.71,23.12V124h101L114.45,120.99L114.45,120.99z" fill="url(#SVGID_1_)"/>
  <g id="hairGroup">
    <path id="hair_5_" d="M64.57,4.87c-41.01,0-40.68,35.92-40.68,36.52c0,7.76,0.19,16.53,0.75,25.32l6.72-0.02 c-0.06-2.92,1.99-20.97,8.08-22.34c22.36-5.03,35.01-16.89,35.01-16.89c3.29,7.18,13.58,14.19,17.27,16.86 c3.03,2.19,4.26,18.55,4.2,22.38h7.41c0-0.05,0.02-0.1,0.02-0.16c0.56-8.75,0.74-17.46,0.74-25.17 C104.1,40.79,105.58,4.87,64.57,4.87z" fill="#543930"/>
    <radialGradient id="hairHighlights_3_" cx="64.3333" cy="65.4037" gradientTransform="matrix(1 0 0 -1.2135 0 141.9667)" gradientUnits="userSpaceOnUse" r="49.7706">
      <stop offset="0.7945" stop-color="#6D4C41" stop-opacity="0"/>
      <stop offset="1" stop-color="#6D4C41"/>
    </radialGradient>
    <path id="hairHighlights" d="M64.57,4.87c-41.01,0-40.68,35.92-40.68,36.52 c0,7.76,0.19,16.53,0.75,25.32l6.72-0.02c-0.06-2.92,1.99-20.97,8.08-22.34c22.36-5.03,35.01-16.89,35.01-16.89 c3.29,7.18,13.58,14.19,17.27,16.86c3.03,2.19,4.26,18.55,4.2,22.38h7.41c0-0.05,0.02-0.1,0.02-0.16 c0.56-8.75,0.74-17.46,0.74-25.17C104.1,40.79,105.58,4.87,64.57,4.87z" fill="url(#hairHighlights_3_)"/>
  </g>
  <g id="hat_1_">
    <g>
      <g>
        <g>
          <path d="M116.62,53.3c-1.24,0-2.25,0.96-2.25,2.14v9.2c0,1.18,1.01,2.14,2.25,2.14s2.25-0.96,2.25-2.14 v-9.2C118.87,54.26,117.86,53.3,116.62,53.3z" fill="#E8AD00"/>
          <path d="M112.12,53.3c-1.24,0-2.25,0.96-2.25,2.14v9.2c0,1.18,1.01,2.14,2.25,2.14s2.25-0.96,2.25-2.14 v-9.2C114.37,54.26,113.36,53.3,112.12,53.3z" fill="#E8AD00"/>
          <path d="M114.37,53.3c-1.24,0-2.25,0.96-2.25,2.14v11.19c0,1.18,1.01,2.14,2.25,2.14 s2.25-0.96,2.25-2.14V55.44C116.62,54.26,115.61,53.3,114.37,53.3z" fill="#FFCA28"/>
        </g>
        <ellipse cx="114.37" cy="52.07" fill="#FFCA28" rx="2.76" ry="2.63"/>
      </g>
      <path d="M114.37,52.04L114.37,52.04c-0.55,0-1-0.45-1-1v-38c0-0.55,0.45-1,1-1l0,0c0.55,0,1,0.45,1,1v38 C115.37,51.59,114.92,52.04,114.37,52.04z" fill="#504F4F"/>
    </g>
    <g>
      <linearGradient id="SVGID_2_" gradientTransform="matrix(1 0 0 -1 0 128)" gradientUnits="userSpaceOnUse" x1="63.366" x2="63.366" y1="128.3333" y2="99.6928">
        <stop offset="3.200000e-03" stop-color="#424242"/>
        <stop offset="0.4718" stop-color="#353535"/>
        <stop offset="1" stop-color="#212121"/>
      </linearGradient>
      <path d="M115.37,12c-30.83-7.75-52-8-52-8s-21.17,0.25-52,8v0.77c0,1.33,0.87,2.5,2.14,2.87 c3.72,1.1,12.09,3.32,17.15,4.33c-0.08,0.08-1.29,1.89-2.05,3.35c0,0,9.39,6.12,34.76,8.68c25.37-2.56,36.65-8.5,36.65-8.5 c-0.88-1.81-1.92-3.34-1.92-3.34c4.5-0.74,11.46-3.3,15.18-4.48c1.25-0.4,2.09-1.55,2.09-2.86V12z" fill="url(#SVGID_2_)"/>
    </g>
    <linearGradient id="SVGID_3_" gradientTransform="matrix(1 0 0 -1 0 128)" gradientUnits="userSpaceOnUse" x1="63.366" x2="63.366" y1="128.1667" y2="97.1667">
      <stop offset="3.200000e-03" stop-color="#616161"/>
      <stop offset="0.3237" stop-color="#505050"/>
      <stop offset="0.955" stop-color="#242424"/>
      <stop offset="1" stop-color="#212121"/>
    </linearGradient>
    <path d="M63.37,4c0,0-21.17,0.25-52,8c0,0,35.41,9.67,52,9.38c16.59,0.29,52-9.38,52-9.38 C84.53,4.25,63.37,4,63.37,4z" fill="url(#SVGID_3_)"/>
    <linearGradient id="SVGID_4_" gradientTransform="matrix(1 0 0 -1 0 128)" gradientUnits="userSpaceOnUse" x1="13.2588" x2="114.087" y1="110.0005" y2="110.0005">
      <stop offset="1.200000e-03" stop-color="#BFBEBE"/>
      <stop offset="0.3" stop-color="#212121" stop-opacity="0"/>
      <stop offset="0.7" stop-color="#212121" stop-opacity="0"/>
      <stop offset="1" stop-color="#BFBEBE"/>
    </linearGradient>
    <path d="M115.37,12c-30.83-7.75-52-8-52-8s-21.17,0.25-52,8 v0.77c0,1.33,0.87,2.5,2.14,2.87c3.72,1.1,12.09,3.21,17.15,4.35c0,0-1.07,1.49-2.05,3.33c0,0,9.39,6.12,34.76,8.68 c25.37-2.56,36.65-8.5,36.65-8.5c-0.88-1.81-1.92-3.34-1.92-3.34c4.5-0.74,11.46-3.3,15.18-4.48c1.25-0.4,2.09-1.55,2.09-2.86V12z" enable-background="new " fill="url(#SVGID_4_)" opacity="0.4"/>
  </g>
</svg>

<svg viewBox="0 0 128 128" xmlns="http://www.w3.org/2000/svg">
  <defs>
    <radialGradient id="SVGID_1_" cx="63.9495" cy="-233.664387" gradientTransform="matrix(1 0 0 -0.5247 0 0)" gradientUnits="userSpaceOnUse" r="54.167">
      <stop offset="0.5981" stop-color="#212121"/>
      <stop offset="1" stop-color="#616161"/>
    </radialGradient>
    <radialGradient id="hairHighlights_2_" cx="64.0002" cy="-49.985289" gradientTransform="matrix(1 0 0 -1.1901 0 0)" gradientUnits="userSpaceOnUse" r="46.9632">
      <stop offset="0.7936" stop-color="#6D4C41" stop-opacity="0"/>
      <stop offset="1" stop-color="#6D4C41"/>
    </radialGradient>
    <radialGradient id="hairHighlights_3_" cx="64.3333" cy="-51.585752" gradientTransform="matrix(1 0 0 -1.2135 0 0)" gradientUnits="userSpaceOnUse" r="49.7706">
      <stop offset="0.7945" stop-color="#6D4C41" stop-opacity="0"/>
      <stop offset="1" stop-color="#6D4C41"/>
    </radialGradient>
    <linearGradient id="SVGID_3_" gradientTransform="matrix(1 0 0 -1 0 0)" gradientUnits="userSpaceOnUse" x1="63.366" x2="63.366" y1="0.1667" y2="-30.8333">
      <stop offset="3.200000e-03" stop-color="#616161"/>
      <stop offset="0.3237" stop-color="#505050"/>
      <stop offset="0.955" stop-color="#242424"/>
      <stop offset="1" stop-color="#212121"/>
    </linearGradient>
    <linearGradient id="SVGID_4_" gradientTransform="matrix(1 0 0 -1 0 0)" gradientUnits="userSpaceOnUse" x1="13.2588" x2="114.087" y1="-17.9995" y2="-17.9995">
      <stop offset="1.200000e-03" stop-color="#BFBEBE"/>
      <stop offset="0.3" stop-color="#212121" stop-opacity="0"/>
      <stop offset="0.7" stop-color="#212121" stop-opacity="0"/>
      <stop offset="1" stop-color="#BFBEBE"/>
    </linearGradient>
    <linearGradient id="SVGID_2_" gradientTransform="matrix(1 0 0 -1 0 0)" gradientUnits="userSpaceOnUse" x1="63.366" x2="63.366" y1="0.3333" y2="-28.3072">
      <stop offset="3.200000e-03" stop-color="#424242"/>
      <stop offset="0.4718" stop-color="#353535"/>
      <stop offset="1" stop-color="#212121"/>
    </linearGradient>
  </defs>
  <path id="hair_10_" d="M64.57,4.87 C23.56,4.87 23.89,40.79 23.89,41.39 C23.89,65.95 25.77,100.64 35.6,114.29 C39.5,119.7 47.03,120 47.03,120 L64,119.98 L80.97,120 C80.97,120 88.51,119.7 92.4,114.29 C102.23,100.64 104.11,65.95 104.11,41.39 C104.1,40.79 105.58,4.87 64.57,4.87 Z" fill="#543930"/>
  <path id="hairHighlights_1_" d="M64.57,4.87 C23.56,4.87 23.89,40.79 23.89,41.39 C23.89,65.95 25.77,100.64 35.6,114.29 C39.5,119.7 47.03,120 47.03,120 L64,119.98 L80.97,120 C80.97,120 88.51,119.7 92.4,114.29 C102.23,100.64 104.11,65.95 104.11,41.39 C104.1,40.79 105.58,4.87 64.57,4.87 Z" fill="url(#hairHighlights_2_)"/>
  <path id="neck" d="M73.78,89.18 L54.1,89.18 L54.1,108.66 C54.1,113.55 58.11,117.51 63.05,117.51 L64.84,117.51 C69.78,117.51 73.79,113.54 73.79,108.66 L73.79,89.18 L73.78,89.18 Z" fill="#E59600"/>
  <path id="head" d="M63.95,16.23 C46.75,16.23 30.82,29.02 30.82,56.14 C30.82,77.93 44.31,90.81 56.05,94.97 C58.85,95.96 61.55,96.46 63.95,96.46 C66.33,96.46 69.02,95.97 71.8,94.99 C83.56,90.85 97.08,77.96 97.08,56.15 C97.08,29.02 81.15,16.23 63.95,16.23 Z" fill="#FFCA28"/>
  <path id="nose" d="M67.76,68.24 C67.66,68.2 67.55,68.17 67.44,68.16 L60.45,68.16 C60.34,68.17 60.24,68.2 60.13,68.24 C59.5,68.5 59.15,69.15 59.45,69.85 C59.75,70.55 61.14,72.51 63.94,72.51 C66.74,72.51 68.13,70.55 68.43,69.85 C68.74,69.16 68.4,68.5 67.76,68.24 Z" fill="#E59600"/>
  <path d="M52.57,59.06 A4.87 5.04 0 1 1 42.83,59.06 A4.87 5.04 0 1 1 52.57,59.06 Z" fill="#404040"/>
  <path d="M85.07,59.06 A4.87 5.04 0 1 1 75.33,59.06 A4.87 5.04 0 1 1 85.07,59.06 Z" fill="#404040"/>
  <path d="M54.93,50.01 C54,48.78 51.86,47 47.7,47 C43.54,47 41.39,48.79 40.47,50.01 C40.06,50.55 40.16,51.18 40.45,51.56 C40.71,51.91 41.49,52.24 42.35,51.95 C43.21,51.66 44.89,50.79 47.7,50.77 C50.51,50.79 52.19,51.66 53.05,51.95 C53.91,52.24 54.69,51.92 54.95,51.56 C55.24,51.18 55.34,50.55 54.93,50.01 Z" fill="#6D4C41"/>
  <path d="M87.43,50.01 C86.5,48.78 84.36,47 80.2,47 C76.04,47 73.89,48.79 72.97,50.01 C72.56,50.55 72.66,51.18 72.95,51.56 C73.21,51.91 73.99,52.24 74.85,51.95 C75.71,51.66 77.39,50.79 80.2,50.77 C83.01,50.79 84.69,51.66 85.55,51.95 C86.41,52.24 87.19,51.92 87.45,51.56 C87.74,51.18 87.84,50.55 87.43,50.01 Z" fill="#6D4C41"/>
  <path id="mouth" d="M72.27,76.33 C69.12,78.2 58.81,78.2 55.66,76.33 C53.85,75.26 52.01,76.9 52.76,78.54 C53.5,80.15 59.13,83.9 63.99,83.9 C68.85,83.9 74.41,80.15 75.15,78.54 C75.9,76.9 74.07,75.25 72.27,76.33 Z" fill="#795548"/>
  <path d="M114.45,120.99 C114.45,106.38 92.7,99.45 73.73,97.89 L65.13,108.92 C64.85,109.28 64.41,109.5 63.95,109.5 C63.49,109.5 63.05,109.29 62.77,108.92 L54.16,97.87 C43.61,98.68 13.45,102.62 13.45,120.99 L13.45,124 L114.45,124 L114.45,120.99 L114.45,120.99 Z" fill="#212121"/>
  <path d="M114.45,120.99 C114.45,106.38 92.7,99.45 73.73,97.89 L65.13,108.92 C64.85,109.28 64.41,109.5 63.95,109.5 C63.49,109.5 63.05,109.29 62.77,108.92 L54.16,97.87 C43.61,98.68 13.45,102.62 13.45,120.99 L13.45,124 L114.45,124 L114.45,120.99 L114.45,120.99 Z" fill="url(#SVGID_1_)"/>
  <path id="hair_5_" d="M64.57,4.87 C23.56,4.87 23.89,40.79 23.89,41.39 C23.89,49.15 24.08,57.92 24.64,66.71 L31.36,66.69 C31.3,63.77 33.35,45.72 39.44,44.35 C61.8,39.32 74.45,27.46 74.45,27.46 C77.74,34.64 88.03,41.65 91.72,44.32 C94.75,46.51 95.98,62.87 95.92,66.7 L103.33,66.7 C103.33,66.65 103.35,66.6 103.35,66.54 C103.91,57.79 104.09,49.08 104.09,41.37 C104.1,40.79 105.58,4.87 64.57,4.87 Z" fill="#543930"/>
  <path id="hairHighlights" d="M64.57,4.87 C23.56,4.87 23.89,40.79 23.89,41.39 C23.89,49.15 24.08,57.92 24.64,66.71 L31.36,66.69 C31.3,63.77 33.35,45.72 39.44,44.35 C61.8,39.32 74.45,27.46 74.45,27.46 C77.74,34.64 88.03,41.65 91.72,44.32 C94.75,46.51 95.98,62.87 95.92,66.7 L103.33,66.7 C103.33,66.65 103.35,66.6 103.35,66.54 C103.91,57.79 104.09,49.08 104.09,41.37 C104.1,40.79 105.58,4.87 64.57,4.87 Z" fill="url(#hairHighlights_3_)"/>
  <path d="M116.62,53.3 C115.38,53.3 114.37,54.26 114.37,55.44 L114.37,64.64 C114.37,65.82 115.38,66.78 116.62,66.78 C117.86,66.78 118.87,65.82 118.87,64.64 L118.87,55.44 C118.87,54.26 117.86,53.3 116.62,53.3 Z" fill="#E8AD00"/>
  <path d="M112.12,53.3 C110.88,53.3 109.87,54.26 109.87,55.44 L109.87,64.64 C109.87,65.82 110.88,66.78 112.12,66.78 C113.36,66.78 114.37,65.82 114.37,64.64 L114.37,55.44 C114.37,54.26 113.36,53.3 112.12,53.3 Z" fill="#E8AD00"/>
  <path d="M114.37,53.3 C113.13,53.3 112.12,54.26 112.12,55.44 L112.12,66.63 C112.12,67.81 113.13,68.77 114.37,68.77 C115.61,68.77 116.62,67.81 116.62,66.63 L116.62,55.44 C116.62,54.26 115.61,53.3 114.37,53.3 Z" fill="#FFCA28"/>
  <path d="M117.13,52.07 A2.76 2.63 0 1 1 111.61,52.07 A2.76 2.63 0 1 1 117.13,52.07 Z" fill="#FFCA28"/>
  <path d="M114.37,52.04 L114.37,52.04 C113.82,52.04 113.37,51.59 113.37,51.04 L113.37,13.04 C113.37,12.49 113.82,12.04 114.37,12.04 L114.37,12.04 C114.92,12.04 115.37,12.49 115.37,13.04 L115.37,51.04 C115.37,51.59 114.92,52.04 114.37,52.04 Z" fill="#504F4F"/>
  <path d="M115.37,12 C84.54,4.25 63.37,4 63.37,4 C63.37,4 42.2,4.25 11.37,12 L11.37,12.77 C11.37,14.1 12.24,15.27 13.51,15.64 C17.23,16.74 25.6,18.96 30.66,19.97 C30.58,20.05 29.37,21.86 28.61,23.32 C28.61,23.32 38,29.44 63.37,32 C88.74,29.44 100.02,23.5 100.02,23.5 C99.14,21.69 98.1,20.16 98.1,20.16 C102.6,19.42 109.56,16.86 113.28,15.68 C114.53,15.28 115.37,14.13 115.37,12.82 L115.37,12 Z" fill="url(#SVGID_2_)"/>
  <path d="M63.37,4 C63.37,4 42.2,4.25 11.37,12 C11.37,12 46.78,21.67 63.37,21.38 C79.96,21.67 115.37,12 115.37,12 C84.53,4.25 63.37,4 63.37,4 Z" fill="url(#SVGID_3_)"/>
  <path d="M115.37,12 C84.54,4.25 63.37,4 63.37,4 C63.37,4 42.2,4.25 11.37,12 L11.37,12.77 C11.37,14.1 12.24,15.27 13.51,15.64 C17.23,16.74 25.6,18.85 30.66,19.99 C30.66,19.99 29.59,21.48 28.61,23.32 C28.61,23.32 38,29.44 63.37,32 C88.74,29.44 100.02,23.5 100.02,23.5 C99.14,21.69 98.1,20.16 98.1,20.16 C102.6,19.42 109.56,16.86 113.28,15.68 C114.53,15.28 115.37,14.13 115.37,12.82 L115.37,12 Z" fill="url(#SVGID_4_)" opacity="0.4"/>
</svg>
